X: 2091
T: Countess of Hadinton's    Strathspey
%R: strathspey
B: Niel Gow & Sons "A Second Collection of Strathspey Reels, etc." v.2 p.9 #1
Z: 2022 John Chambers <jc:trillian.mit.edu>
M: C
L: 1/16
K: Bb
% - - - - - - - - - -
% Voice 1 reformatted for 2 6-bar lines, for compactness and proofreading.
V: 1 staves=2
F2 |\
(DEF2) B2F2 (DEF2) B2F2 | G2E2{G}F2{E}D2 C2c2-Tc3d |\
(DEF2) B2F2 (DEF2) B2g2 | f2d2 edcB F2B2B2 :|\
d2 |\
(Bcde) f2b2 B2b2f2d2 | e2(dc) (ed)cB G2c2-Tc2d2 |
(Bcde) f2b2 B2b2f2d2 | e2dc (edc)B F2B2TB2d2 ||\
(Bcde) f2b2 B2b2f2d2 | e2(dc) (ed)cB G2c2-Tc3d |\
BF3DF3 B,F3Dg3 | f3d (ed)cB F2B2TB2 |]
% - - - - - - - - - -
% Voice 2 preserves the staff layout in the book.
V: 2 clef=bass middle=d
z2 | B4B4 B4B4 | e4d4 c4c4 | B4B4 B6e2 | f4F4 B4B2 :|
z2 | b4b4 b4b4 | a4b4 e4f4 | b4b4 b4b4 | e4f4 B4B4 ||
b4b4 b4b4 | a4b4 e4f4 | B4B4 B6e2 | f4F4 B4B2 |]


